packages/kaspersky-hexa-ui-icons/src/iconsSVGs/16x12/FlagUs.svg

<svg width="16" height="12" viewBox="0 0 16 12" fill="none" xmlns="http://www.w3.org/2000/svg">
<g clip-path="url(#clip0_41818_3920)">
<rect width="16" height="12" rx="2" fill="white"/>
<mask id="mask0_41818_3920" style="mask-type:luminance" maskUnits="userSpaceOnUse" x="0" y="0" width="16" height="12">
<rect width="16" height="12" rx="2" fill="white"/>
</mask>
<g mask="url(#mask0_41818_3920)">
<path d="M16 12H0V11.2002H16V12ZM16 10.4004H0V9.59961H16V10.4004ZM16 8.7998H0V8H16V8.7998ZM16 7.2002H0V6.40039H16V7.2002ZM16 5.59961H0V4.7998H16V5.59961ZM16 4H0V3.2002H16V4ZM16 2.40039H0V1.59961H16V2.40039ZM16 0.799805H0V0H16V0.799805Z" fill="#D02F44"/>
<rect width="6.85714" height="5.6" fill="#46467F"/>
<path d="M1.14294 4.02946C1.35333 4.02948 1.5238 4.20249 1.5238 4.41521C1.5236 4.62775 1.3532 4.79996 1.14294 4.79997C0.932673 4.79997 0.762285 4.62776 0.762085 4.41521C0.762085 4.20248 0.93255 4.02946 1.14294 4.02946ZM2.66638 4.02946C2.87678 4.02946 3.04724 4.20248 3.04724 4.41521C3.04704 4.62776 2.87665 4.79997 2.66638 4.79997C2.45627 4.79979 2.28572 4.62765 2.28552 4.41521C2.28552 4.2026 2.45614 4.02965 2.66638 4.02946ZM4.1908 4.02946C4.40106 4.02961 4.57166 4.20257 4.57166 4.41521C4.57146 4.62767 4.40094 4.79982 4.1908 4.79997C3.98053 4.79997 3.81014 4.62776 3.80994 4.41521C3.80994 4.20248 3.9804 4.02946 4.1908 4.02946ZM5.71423 4.02946C5.92463 4.02946 6.09509 4.20248 6.09509 4.41521C6.09489 4.62776 5.9245 4.79997 5.71423 4.79997C5.504 4.79992 5.33357 4.62773 5.33337 4.41521C5.33337 4.20251 5.50388 4.02952 5.71423 4.02946ZM1.90466 3.25896C2.11506 3.25896 2.28552 3.43197 2.28552 3.6447C2.28541 3.85733 2.11499 4.02946 1.90466 4.02946C1.69438 4.02941 1.52392 3.85729 1.5238 3.6447C1.5238 3.43201 1.69431 3.25901 1.90466 3.25896ZM3.4281 3.25896C3.63849 3.25896 3.80994 3.43197 3.80994 3.6447C3.80982 3.85733 3.63842 4.02946 3.4281 4.02946C3.21799 4.02921 3.04735 3.85717 3.04724 3.6447C3.04724 3.43213 3.21792 3.25921 3.4281 3.25896ZM4.95251 3.25896C5.16284 3.25904 5.33337 3.43203 5.33337 3.6447C5.33326 3.85728 5.16277 4.02938 4.95251 4.02946C4.74219 4.02946 4.57177 3.85733 4.57166 3.6447C4.57166 3.43197 4.74212 3.25896 4.95251 3.25896ZM1.14294 2.48943C1.35333 2.48944 1.5238 2.66148 1.5238 2.87419C1.52378 3.08688 1.35331 3.25894 1.14294 3.25896C0.932567 3.25896 0.762112 3.08689 0.762085 2.87419C0.762085 2.66147 0.93255 2.48943 1.14294 2.48943ZM2.66638 2.48943C2.87678 2.48943 3.04724 2.66147 3.04724 2.87419C3.04721 3.08689 2.87676 3.25896 2.66638 3.25896C2.45616 3.25877 2.28555 3.08678 2.28552 2.87419C2.28552 2.66158 2.45614 2.48961 2.66638 2.48943ZM4.1908 2.48943C4.40106 2.48958 4.57166 2.66156 4.57166 2.87419C4.57163 3.0868 4.40105 3.25881 4.1908 3.25896C3.98042 3.25896 3.80996 3.08689 3.80994 2.87419C3.80994 2.66147 3.9804 2.48943 4.1908 2.48943ZM5.71423 2.48943C5.92463 2.48943 6.09509 2.66147 6.09509 2.87419C6.09507 3.08689 5.92461 3.25896 5.71423 3.25896C5.5039 3.25891 5.3334 3.08686 5.33337 2.87419C5.33337 2.6615 5.50388 2.48948 5.71423 2.48943ZM1.90466 1.71892C2.11502 1.71892 2.28546 1.89101 2.28552 2.10368C2.28552 2.31641 2.11506 2.48943 1.90466 2.48943C1.69431 2.48937 1.5238 2.31638 1.5238 2.10368C1.52386 1.89104 1.69435 1.71897 1.90466 1.71892ZM3.4281 1.71892C3.63846 1.71892 3.80988 1.89101 3.80994 2.10368C3.80994 2.31641 3.63849 2.48943 3.4281 2.48943C3.21792 2.48918 3.04724 2.31625 3.04724 2.10368C3.0473 1.89117 3.21795 1.71917 3.4281 1.71892ZM4.95251 1.71892C5.1628 1.719 5.33331 1.89106 5.33337 2.10368C5.33337 2.31636 5.16284 2.48934 4.95251 2.48943C4.74212 2.48943 4.57166 2.31641 4.57166 2.10368C4.57172 1.89101 4.74216 1.71892 4.95251 1.71892ZM1.14294 0.94841C1.35323 0.948435 1.52366 1.12059 1.5238 1.33318C1.5238 1.54588 1.35332 1.71889 1.14294 1.71892C0.93255 1.71892 0.762085 1.5459 0.762085 1.33318C0.762232 1.12058 0.932641 0.94841 1.14294 0.94841ZM2.66638 0.94841C2.87669 0.94841 3.04709 1.12058 3.04724 1.33318C3.04724 1.5459 2.87678 1.71892 2.66638 1.71892C2.45614 1.71874 2.28552 1.54579 2.28552 1.33318C2.28567 1.12069 2.45623 0.948588 2.66638 0.94841ZM4.1908 0.94841C4.40097 0.948562 4.57151 1.12067 4.57166 1.33318C4.57166 1.54581 4.40106 1.71877 4.1908 1.71892C3.9804 1.71892 3.80994 1.5459 3.80994 1.33318C3.81008 1.12058 3.98049 0.94841 4.1908 0.94841ZM5.71423 0.94841C5.92454 0.94841 6.09495 1.12058 6.09509 1.33318C6.09509 1.5459 5.92463 1.71892 5.71423 1.71892C5.50388 1.71887 5.33337 1.54587 5.33337 1.33318C5.33352 1.12061 5.50397 0.948461 5.71423 0.94841Z" fill="url(#paint0_linear_41818_3920)"/>
</g>
</g>
<defs>
<linearGradient id="paint0_linear_41818_3920" x1="0.762085" y1="0.94841" x2="0.762085" y2="4.80013" gradientUnits="userSpaceOnUse">
<stop stop-color="white"/>
<stop offset="1" stop-color="#F0F0F0"/>
</linearGradient>
<clipPath id="clip0_41818_3920">
<rect width="16" height="12" fill="white"/>
</clipPath>
</defs>
</svg>

<svg xmlns="http://www.w3.org/2000/svg" width="16" height="12" fill="none" viewBox="0 0 16 12"><g clip-path="url(#a)"><rect width="16" height="12" fill="#fff" rx="2"/><mask id="b" width="16" height="12" x="0" y="0" maskUnits="userSpaceOnUse" style="mask-type:luminance"><rect width="16" height="12" fill="#fff" rx="2"/></mask><g mask="url(#b)"><path fill="#d02f44" d="M16 12H0v-.7998h16zm0-1.5996H0v-.8008h16zm0-1.6006H0V8h16zm0-1.5996H0v-.7998h16zm0-1.6006H0v-.7998h16zM16 4H0v-.7998h16zm0-1.5996H0v-.8008h16zm0-1.6006H0V0h16z"/><path fill="#46467f" d="M0 0h6.8571v5.6H0z"/><path fill="url(#c)" d="M1.143 4.0295c.2103 0 .3808.173.3808.3857-.0002.2126-.1706.3848-.3809.3848-.2102 0-.3806-.1722-.3808-.3848 0-.2127.1705-.3857.3808-.3857m1.5234 0c.2104 0 .3808.173.3808.3857-.0002.2126-.1705.3848-.3808.3848-.2101-.0002-.3807-.1723-.3809-.3848 0-.2126.1706-.3855.3809-.3857m1.5244 0c.2103.0001.3809.173.3809.3857-.0002.2125-.1708.3846-.3809.3848-.2103 0-.3807-.1722-.3809-.3848 0-.2127.1705-.3857.3809-.3857m1.5234 0c.2104 0 .3809.173.3809.3857-.0002.2126-.1706.3848-.3809.3848-.2102 0-.3806-.1723-.3808-.3848 0-.2127.1705-.3857.3808-.3857M1.9047 3.259c.2104 0 .3808.173.3808.3857s-.1705.3848-.3808.3848-.3808-.1722-.3809-.3848c0-.2127.1705-.3857.3809-.3857m1.5234 0c.2104 0 .3818.173.3818.3857s-.1715.3848-.3818.3848c-.2101-.0003-.3808-.1723-.3809-.3848 0-.2126.1707-.3855.3809-.3857m1.5244 0c.2103 0 .3809.173.3809.3857-.0001.2126-.1706.3847-.3809.3848s-.3807-.1722-.3808-.3848c0-.2127.1704-.3857.3808-.3857M1.143 2.4894c.2104 0 .3809.172.3809.3848s-.1705.3847-.3809.3848c-.2103 0-.3808-.1721-.3808-.3848s.1705-.3848.3808-.3848m1.5235 0c.2104 0 .3808.172.3808.3848s-.1704.3848-.3808.3848c-.2102-.0002-.3808-.1722-.3809-.3848s.1706-.3846.3809-.3848m1.5244 0c.2103.0002.3809.1722.3809.3848s-.1707.3846-.3809.3848c-.2104 0-.3808-.1721-.3809-.3848s.1705-.3848.3809-.3848m1.5234 0c.2104 0 .3809.172.3809.3848s-.1705.3848-.3809.3848c-.2103 0-.3808-.1721-.3808-.3848s.1705-.3847.3808-.3848M1.9047 1.719c.2103 0 .3808.1721.3808.3848s-.1704.3857-.3808.3857-.3809-.173-.3809-.3857.1705-.3847.3809-.3848m1.5234 0c.2104 0 .3818.1721.3818.3848s-.1714.3857-.3818.3857c-.2102-.0002-.3809-.1731-.3809-.3857.0001-.2125.1707-.3845.3809-.3848m1.5244 0c.2103.0001.3808.1722.3809.3848 0 .2127-.1706.3856-.3809.3857s-.3808-.173-.3808-.3857.1705-.3848.3808-.3848M1.143.9484c.2103 0 .3808.1722.3809.3848 0 .2127-.1705.3857-.3809.3857s-.3808-.173-.3808-.3857c.0001-.2126.1705-.3848.3808-.3848m1.5235 0c.2103 0 .3807.1722.3808.3848 0 .2127-.1704.3857-.3808.3857-.2103-.0002-.3809-.1731-.3809-.3857.0002-.2125.1707-.3846.3809-.3848m1.5244 0c.2102.0002.3807.1723.3809.3848 0 .2126-.1706.3856-.3809.3857s-.3809-.173-.3809-.3857c.0002-.2126.1706-.3848.3809-.3848m1.5234 0c.2103 0 .3807.1722.3809.3848 0 .2127-.1705.3857-.3809.3857-.2103 0-.3808-.173-.3808-.3857.0001-.2126.1706-.3847.3808-.3848"/></g></g><defs><linearGradient id="c" x1="1" x2="1" y1="1" y2="5" gradientUnits="userSpaceOnUse"><stop stop-color="#fff"/><stop offset="1" stop-color="#f0f0f0"/></linearGradient><clipPath id="a"><path fill="#fff" d="M0 0h16v12H0z"/></clipPath></defs></svg>
